!!! OTL: Berkowitz495
!!! Chapter: 1
!!! Section: IV
!!! Page: 123
!!! Mode: 
!!! Encoder: DJB
**kern
*staff1
*I"Piano
=1-
*clefG2
*k[b-e-]
*B-:
*M4/4
8r
8f/L
8b-/
8f/J
8en/L
8b-/
8e-/
8c#/J
=2
4.d/
8g/
2f/
=3
8r
8b-\L
8ee-\
8dd-\J
8b-\
4cc\
8cc#\
=4
8dd/L
8f/
8a-/
[8g/J
2g/]
=5
8r
8d#/L
8en/
8ddn/J
8cc/L
8a-/
8f/
8e-/J
=6
!!linebreak:original
8r
8c#/L
8d/
8cc#/J
2b-\
=7
8r
8f/L
8b-/
8f/J
8en/L
8b-/
8e-/
8b-/J
=8
8d/L
8d-/
8c/
[8B-/J
2B-/]
==
*-
